resources/icons/20px/bullseye.svg

<svg width="20" height="20" viewBox="0 0 20 20" fill="none" xmlns="http://www.w3.org/2000/svg">
<path fill-rule="evenodd" clip-rule="evenodd" d="M19.7071 0.292893C20.0976 0.683417 20.0976 1.31658 19.7071 1.70711L10.7071 10.7071C10.3166 11.0976 9.68342 11.0976 9.29289 10.7071C8.90237 10.3166 8.90237 9.68342 9.29289 9.29289L18.2929 0.292893C18.6834 -0.0976311 19.3166 -0.0976311 19.7071 0.292893Z" fill="#5F6B7C"/>
<path d="M14.6256 1.13182C13.2424 0.408835 11.6689 0 10 0C4.47715 0 0 4.47715 0 10C0 15.5228 4.47715 20 10 20C15.5228 20 20 15.5228 20 10C20 8.33111 19.5912 6.75771 18.8682 5.37448L17.367 6.87575C17.7745 7.8356 18 8.89147 18 10C18 14.4183 14.4183 18 10 18C5.58172 18 2 14.4183 2 10C2 5.58172 5.58172 2 10 2C11.1086 2 12.1645 2.22548 13.1243 2.63308L14.6256 1.13182Z" fill="#5F6B7C"/>
<path d="M11.5542 4.20324C11.0585 4.07068 10.5375 4 10 4C6.68629 4 4 6.68629 4 10C4 13.3137 6.68629 16 10 16C13.3137 16 16 13.3137 16 10C16 9.46254 15.9293 8.94159 15.7968 8.44592L13.9923 10.2504C13.863 12.3429 12.125 14 10 14C7.79086 14 6 12.2091 6 10C6 7.87492 7.65717 6.13689 9.74973 6.0077L11.5542 4.20324Z" fill="#5F6B7C"/>
</svg>

<svg xmlns="http://www.w3.org/2000/svg" viewBox="0 0 20 20">
  <path d="M19.707.293a1 1 0 0 1 0 1.414l-9 9a1 1 0 0 1-1.414-1.414l9-9a1 1 0 0 1 1.414 0"/>
  <path d="M14.626 1.132A9.96 9.96 0 0 0 10 0C4.477 0 0 4.477 0 10s4.477 10 10 10 10-4.477 10-10a9.96 9.96 0 0 0-1.132-4.626l-1.501 1.502a8 8 0 1 1-4.243-4.243z"/>
  <path d="M11.554 4.203a6 6 0 1 0 4.243 4.243l-1.805 1.804A4 4 0 1 1 9.75 6.008z"/>
</svg>
